svgs/light/shield.svg

<svg xmlns="http://www.w3.org/2000/svg" viewBox="0 0 512 512"><!--! Font Awesome Pro 6.1.1 by @fontawesome - https://fontawesome.com License - https://fontawesome.com/license (Commercial License) Copyright 2022 Fonticons, Inc. --><path d="M231 7.838C247 1.065 265.1 1.066 281 7.84L457.7 82.79C479.7 92.12 496.2 113.8 496 139.1C495.5 239.2 454.7 420.7 282.4 503.2C265.7 511.1 246.3 511.1 229.6 503.2C57.26 420.7 16.49 239.2 16 139.1C15.87 113.8 32.32 92.12 54.3 82.79L231 7.838zM268.5 37.3C260.5 33.91 251.5 33.91 243.5 37.3L66.79 112.3C55.51 117 47.94 127.7 48 139.8C48.46 233.8 87.33 399.6 243.4 474.3C251.4 478.1 260.6 478.1 268.6 474.3C424.7 399.6 463.6 233.8 464 139.8C464.1 127.7 456.5 117 445.2 112.3L268.5 37.3z"/></svg>

<svg xmlns="http://www.w3.org/2000/svg" viewBox="0 0 512 512"><!--! Font Awesome Pro 6.4.2 by @fontawesome - https://fontawesome.com License - https://fontawesome.com/license (Commercial License) Copyright 2023 Fonticons, Inc. --><path d="M268.5 37.3c-8-3.4-17-3.4-25 0l-176.7 75C55.5 117 47.9 127.7 48 139.8c.5 94 39.3 259.8 195.4 334.5c7.9 3.8 17.2 3.8 25.1 0c156.1-74.7 195-240.4 195.5-334.5c.1-12.1-7.5-22.8-18.8-27.6l-176.7-75zM231 7.8c16-6.8 34-6.8 50 0l176.7 75c22 9.3 38.4 31 38.3 57.2c-.5 99.2-41.3 280.7-213.6 363.2c-16.7 8-36.1 8-52.8 0C57.3 420.7 16.5 239.2 16 140c-.1-26.2 16.3-47.9 38.3-57.2L231 7.8z"/></svg>
